**harm	**harte	**timestamp	**phrase	**leadinstrument	**kern
*M4/4	*M4/4	*	*	*	*
*E:	*E:	*	*	*	*E:
1r;	N	0	.	r	1r;
1r;	N	0.395	.	r	1r;
=1	=1	=1	=1	=1	=1
*>A_intro	*>A_intro	*>A_intro	*>A_intro	*>A_intro	*>A_intro
1I	E:maj	2.577	newline	guitar	1E 1g# 1b
=2	=2	=2	=2	=2	=2
1I	E:maj	4.15	.	guitar	1E 1g# 1b
=3	=3	=3	=3	=3	=3
1I	E:maj	5.723	.	guitar	1E 1g# 1b
=4	=4	=4	=4	=4	=4
1I	E:maj	7.295	.	guitar	1E 1g# 1b
=5	=5	=5	=5	=5	=5
1I	E:maj	8.868	newline	guitar	1E 1g# 1b
=6	=6	=6	=6	=6	=6
1I	E:maj	10.475	.	guitar	1E 1g# 1b
=7	=7	=7	=7	=7	=7
1I	E:maj	12.082	.	guitar	1E 1g# 1b
=8	=8	=8	=8	=8	=8
*>B_verse	*>B_verse	*>B_verse	*>B_verse	*>B_verse	*>B_verse
1I	E:maj	13.689	newline	voice	1E 1g# 1b
=9	=9	=9	=9	=9	=9
2IV	A:sus4	15.291	.	voice	2A 2cc# 2ee
2IV	A:maj	16.092	.	voice	2A 2cc# 2ee
=10	=10	=10	=10	=10	=10
2IV	A:sus4	16.892	.	voice	2A 2cc# 2ee
2IV	A:maj	17.693	.	voice	2A 2cc# 2ee
=11	=11	=11	=11	=11	=11
1I	E:maj	18.494	.	voice	1E 1g# 1b
=12	=12	=12	=12	=12	=12
1V	B:maj	20.095	.	voice	1B 1dd# 1ff#
=13	=13	=13	=13	=13	=13
1V	B:maj	21.697	.	voice	1B 1dd# 1ff#
=14	=14	=14	=14	=14	=14
1IVm7	A:11	23.298	newline	voice	1A 1cc# 1ee 1gg#
=15	=15	=15	=15	=15	=15
1IVm7	A:11	24.885	.	voice	1A 1cc# 1ee 1gg#
=16	=16	=16	=16	=16	=16
1I	E:maj	26.472	newline	voice	1E 1g# 1b
=17	=17	=17	=17	=17	=17
2IV	A:sus4	28.076	.	voice	2A 2cc# 2ee
2IV	A:maj	28.878	.	voice	2A 2cc# 2ee
=18	=18	=18	=18	=18	=18
2IV	A:sus4	29.68	.	voice	2A 2cc# 2ee
2IV	A:maj	30.483	.	voice	2A 2cc# 2ee
=19	=19	=19	=19	=19	=19
1I	E:maj	31.285	.	voice	1E 1g# 1b
=20	=20	=20	=20	=20	=20
1V	B:maj	32.889	.	voice	1B 1dd# 1ff#
=21	=21	=21	=21	=21	=21
1V	B:maj	34.493	.	voice	1B 1dd# 1ff#
=22	=22	=22	=22	=22	=22
1IVm7	A:11	36.098	newline	voice	1A 1cc# 1ee 1gg#
=23	=23	=23	=23	=23	=23
1IVm7	A:11	37.699	.	voice	1A 1cc# 1ee 1gg#
=24	=24	=24	=24	=24	=24
*>C_chorus	*>C_chorus	*>C_chorus	*>C_chorus	*>C_chorus	*>C_chorus
1I	E:maj	39.3	newline	voice	1E 1g# 1b
=25	=25	=25	=25	=25	=25
1V	B:maj	40.915	.	voice	1B 1dd# 1ff#
=26	=26	=26	=26	=26	=26
1IVm7	A:11	42.531	.	voice	1A 1cc# 1ee 1gg#
=27	=27	=27	=27	=27	=27
1IVm7	A:11	44.146	.	voice	1A 1cc# 1ee 1gg#
=28	=28	=28	=28	=28	=28
1I	E:maj	45.761	newline	voice	1E 1g# 1b
=29	=29	=29	=29	=29	=29
1IVm7	A:11	47.366	.	voice	1A 1cc# 1ee 1gg#
=30	=30	=30	=30	=30	=30
*>B_verse	*>B_verse	*>B_verse	*>B_verse	*>B_verse	*>B_verse
1I	E:maj	48.971	newline	voice	1E 1g# 1b
=31	=31	=31	=31	=31	=31
2IV	A:sus4	50.567	.	voice	2A 2cc# 2ee
2IV	A:maj	51.365	.	voice	2A 2cc# 2ee
=32	=32	=32	=32	=32	=32
2IV	A:sus4	52.163	.	voice	2A 2cc# 2ee
2IV	A:maj	52.961	.	voice	2A 2cc# 2ee
=33	=33	=33	=33	=33	=33
1I	E:maj	53.759	.	voice	1E 1g# 1b
=34	=34	=34	=34	=34	=34
1V	B:maj	55.355	.	voice	1B 1dd# 1ff#
=35	=35	=35	=35	=35	=35
1V	B:maj	56.95	.	voice	1B 1dd# 1ff#
=36	=36	=36	=36	=36	=36
1IVm7	A:11	58.546	newline	voice	1A 1cc# 1ee 1gg#
=37	=37	=37	=37	=37	=37
1IVm7	A:11	60.153	.	voice	1A 1cc# 1ee 1gg#
=38	=38	=38	=38	=38	=38
1I	E:maj	61.76	newline	voice	1E 1g# 1b
=39	=39	=39	=39	=39	=39
2IV	A:sus4	63.345	.	voice	2A 2cc# 2ee
2IV	A:maj	64.137	.	voice	2A 2cc# 2ee
=40	=40	=40	=40	=40	=40
2IV	A:sus4	64.93	.	voice	2A 2cc# 2ee
2IV	A:maj	65.722	.	voice	2A 2cc# 2ee
=41	=41	=41	=41	=41	=41
1I	E:maj	66.514	.	voice	1E 1g# 1b
=42	=42	=42	=42	=42	=42
1V	B:maj	68.099	.	voice	1B 1dd# 1ff#
=43	=43	=43	=43	=43	=43
1V	B:maj	69.684	.	voice	1B 1dd# 1ff#
=44	=44	=44	=44	=44	=44
1IVm7	A:11	71.268	newline	voice	1A 1cc# 1ee 1gg#
=45	=45	=45	=45	=45	=45
1IVm7	A:11	72.855	.	voice	1A 1cc# 1ee 1gg#
=46	=46	=46	=46	=46	=46
*>C2_chorus	*>C2_chorus	*>C2_chorus	*>C2_chorus	*>C2_chorus	*>C2_chorus
1I	E:maj	74.442	newline	voice	1E 1g# 1b
=47	=47	=47	=47	=47	=47
1V	B:maj	76.061	.	voice	1B 1dd# 1ff#
=48	=48	=48	=48	=48	=48
1IVm7	A:11	77.68	.	voice	1A 1cc# 1ee 1gg#
=49	=49	=49	=49	=49	=49
1IVm7	A:11	79.299	.	voice	1A 1cc# 1ee 1gg#
=50	=50	=50	=50	=50	=50
*>A_interlude	*>A_interlude	*>A_interlude	*>A_interlude	*>A_interlude	*>A_interlude
1I	E:maj	80.918	newline	voice guitar	1E 1g# 1b
=51	=51	=51	=51	=51	=51
1I	E:maj	82.51	.	voice guitar	1E 1g# 1b
=52	=52	=52	=52	=52	=52
1I	E:maj	84.102	.	voice guitar	1E 1g# 1b
=53	=53	=53	=53	=53	=53
1I	E:maj	85.694	.	voice guitar	1E 1g# 1b
=54	=54	=54	=54	=54	=54
1I	E:maj	87.286	newline	guitar	1E 1g# 1b
=55	=55	=55	=55	=55	=55
1I	E:maj	88.854	.	guitar	1E 1g# 1b
=56	=56	=56	=56	=56	=56
1I	E:maj	90.422	.	guitar	1E 1g# 1b
=57	=57	=57	=57	=57	=57
*>B_verse	*>B_verse	*>B_verse	*>B_verse	*>B_verse	*>B_verse
1I	E:maj	91.99	newline	voice	1E 1g# 1b
=58	=58	=58	=58	=58	=58
2IV	A:sus4	93.582	.	voice	2A 2cc# 2ee
2IV	A:maj	94.378	.	voice	2A 2cc# 2ee
=59	=59	=59	=59	=59	=59
2IV	A:sus4	95.173	.	voice	2A 2cc# 2ee
2IV	A:maj	95.969	.	voice	2A 2cc# 2ee
=60	=60	=60	=60	=60	=60
1I	E:maj	96.765	.	voice	1E 1g# 1b
=61	=61	=61	=61	=61	=61
1V	B:maj	98.356	.	voice	1B 1dd# 1ff#
=62	=62	=62	=62	=62	=62
1V	B:maj	99.948	.	voice	1B 1dd# 1ff#
=63	=63	=63	=63	=63	=63
1IVm7	A:11	101.539	newline	voice	1A 1cc# 1ee 1gg#
=64	=64	=64	=64	=64	=64
1IVm7	A:11	103.133	.	voice	1A 1cc# 1ee 1gg#
=65	=65	=65	=65	=65	=65
1I	E:maj	104.728	newline	voice	1E 1g# 1b
=66	=66	=66	=66	=66	=66
2IV	A:sus4	106.306	.	voice	2A 2cc# 2ee
2IV	A:maj	107.096	.	voice	2A 2cc# 2ee
=67	=67	=67	=67	=67	=67
2IV	A:sus4	107.885	.	voice	2A 2cc# 2ee
2IV	A:maj	108.675	.	voice	2A 2cc# 2ee
=68	=68	=68	=68	=68	=68
1I	E:maj	109.464	.	voice	1E 1g# 1b
=69	=69	=69	=69	=69	=69
1V	B:maj	111.043	.	voice	1B 1dd# 1ff#
=70	=70	=70	=70	=70	=70
1V	B:maj	112.622	.	voice	1B 1dd# 1ff#
=71	=71	=71	=71	=71	=71
1IVm7	A:11	114.201	newline	voice	1A 1cc# 1ee 1gg#
=72	=72	=72	=72	=72	=72
1IVm7	A:11	115.762	.	voice	1A 1cc# 1ee 1gg#
=73	=73	=73	=73	=73	=73
*>C_chorus	*>C_chorus	*>C_chorus	*>C_chorus	*>C_chorus	*>C_chorus
1I	E:maj	117.323	newline	voice	1E 1g# 1b
=74	=74	=74	=74	=74	=74
1V	B:maj	118.94	.	voice	1B 1dd# 1ff#
=75	=75	=75	=75	=75	=75
1IVm7	A:11	120.557	.	voice	1A 1cc# 1ee 1gg#
=76	=76	=76	=76	=76	=76
1IVm7	A:11	122.174	.	voice	1A 1cc# 1ee 1gg#
=77	=77	=77	=77	=77	=77
1I	E:maj	123.792	newline	voice	1E 1g# 1b
=78	=78	=78	=78	=78	=78
1IVm7	A:11	125.407	.	voice	1A 1cc# 1ee 1gg#
=79	=79	=79	=79	=79	=79
*>B_verse	*>B_verse	*>B_verse	*>B_verse	*>B_verse	*>B_verse
1I	E:maj	127.023	newline	voice	1E 1g# 1b
=80	=80	=80	=80	=80	=80
2IV	A:sus4	128.609	.	voice	2A 2cc# 2ee
2IV	A:maj	129.403	.	voice	2A 2cc# 2ee
=81	=81	=81	=81	=81	=81
2IV	A:sus4	130.196	.	voice	2A 2cc# 2ee
2IV	A:maj	130.989	.	voice	2A 2cc# 2ee
=82	=82	=82	=82	=82	=82
1I	E:maj	131.783	.	voice	1E 1g# 1b
=83	=83	=83	=83	=83	=83
1V	B:maj	133.369	.	voice	1B 1dd# 1ff#
=84	=84	=84	=84	=84	=84
1V	B:maj	134.956	.	voice	1B 1dd# 1ff#
=85	=85	=85	=85	=85	=85
1IVm7	A:11	136.543	newline	voice	1A 1cc# 1ee 1gg#
=86	=86	=86	=86	=86	=86
1IVm7	A:11	138.145	.	voice	1A 1cc# 1ee 1gg#
=87	=87	=87	=87	=87	=87
1I	E:maj	139.747	newline	voice	1E 1g# 1b
=88	=88	=88	=88	=88	=88
2IV	A:sus4	141.342	.	voice	2A 2cc# 2ee
2IV	A:maj	142.14	.	voice	2A 2cc# 2ee
=89	=89	=89	=89	=89	=89
2IV	A:sus4	142.938	.	voice	2A 2cc# 2ee
2IV	A:maj	143.736	.	voice	2A 2cc# 2ee
=90	=90	=90	=90	=90	=90
1I	E:maj	144.533	.	voice	1E 1g# 1b
=91	=91	=91	=91	=91	=91
1V	B:maj	146.129	.	voice	1B 1dd# 1ff#
=92	=92	=92	=92	=92	=92
1V	B:maj	147.724	.	voice	1B 1dd# 1ff#
=93	=93	=93	=93	=93	=93
1IVm7	A:11	149.32	newline	voice	1A 1cc# 1ee 1gg#
=94	=94	=94	=94	=94	=94
1IVm7	A:11	150.944	.	voice	1A 1cc# 1ee 1gg#
=95	=95	=95	=95	=95	=95
*>C3_chorus	*>C3_chorus	*>C3_chorus	*>C3_chorus	*>C3_chorus	*>C3_chorus
1I	E:maj	152.569	newline	voice	1E 1g# 1b
=96	=96	=96	=96	=96	=96
1V	B:maj	154.15	.	voice	1B 1dd# 1ff#
=97	=97	=97	=97	=97	=97
1IVm7	A:11	155.731	.	voice	1A 1cc# 1ee 1gg#
=98	=98	=98	=98	=98	=98
1IVm7	A:11	157.313	.	voice	1A 1cc# 1ee 1gg#
=99	=99	=99	=99	=99	=99
1I	E:maj	158.894	newline	voice	1E 1g# 1b
=100	=100	=100	=100	=100	=100
1IVm7	A:11	160.484	.	voice	1A 1cc# 1ee 1gg#
=101	=101	=101	=101	=101	=101
1I	E:maj	162.074	.	voice	1E 1g# 1b
=102	=102	=102	=102	=102	=102
1IVm7	A:11	163.664	.	voice	1A 1cc# 1ee 1gg#
=103	=103	=103	=103	=103	=103
1I	E:maj	165.255	newline	voice	1E 1g# 1b
=104	=104	=104	=104	=104	=104
1IVm7	A:11	166.857	.	voice	1A 1cc# 1ee 1gg#
=105	=105	=105	=105	=105	=105
1I	E:maj	168.459	.	voice	1E 1g# 1b
=106	=106	=106	=106	=106	=106
1I	E:maj	170.061	.	voice	1E 1g# 1b
=107	=107	=107	=107	=107	=107
*>D_trans	*>D_trans	*>D_trans	*>D_trans	*>D_trans	*>D_trans
1I	E:maj	171.663	newline	guitar	1E 1g# 1b
=108	=108	=108	=108	=108	=108
1I	E:maj	173.243	.	guitar	1E 1g# 1b
=109	=109	=109	=109	=109	=109
1I	E:maj	174.823	.	guitar	1E 1g# 1b
=110	=110	=110	=110	=110	=110
1I	E:maj	176.402	.	guitar	1E 1g# 1b
=111	=111	=111	=111	=111	=111
*>E_verse	*>E_verse	*>E_verse	*>E_verse	*>E_verse	*>E_verse
1I	E:maj	177.982	newline	voice	1E 1g# 1b
=112	=112	=112	=112	=112	=112
1I	E:maj	179.508	.	voice	1E 1g# 1b
=113	=113	=113	=113	=113	=113
1I	E:maj	181.034	.	voice	1E 1g# 1b
=114	=114	=114	=114	=114	=114
1I	E:maj	182.56	.	voice	1E 1g# 1b
=115	=115	=115	=115	=115	=115
1I	E:maj	184.087	newline	voice	1E 1g# 1b
=116	=116	=116	=116	=116	=116
1I	E:maj	185.63	.	voice	1E 1g# 1b
=117	=117	=117	=117	=117	=117
1IV	A:maj	187.173	.	voice	1A 1cc# 1ee
=118	=118	=118	=118	=118	=118
1IVm7	A:11	188.717	.	voice	1A 1cc# 1ee 1gg#
=119	=119	=119	=119	=119	=119
1IVm7	A:11	190.26	newline	voice	1A 1cc# 1ee 1gg#
=120	=120	=120	=120	=120	=120
1IVm7	A:11	191.862	.	voice	1A 1cc# 1ee 1gg#
=121	=121	=121	=121	=121	=121
1I	E:maj	193.464	newline	voice	1E 1g# 1b
=122	=122	=122	=122	=122	=122
1I	E:maj	195.029	.	voice	1E 1g# 1b
=123	=123	=123	=123	=123	=123
1I	E:maj	196.595	.	voice	1E 1g# 1b
=124	=124	=124	=124	=124	=124
1I	E:maj	198.161	.	voice	1E 1g# 1b
=125	=125	=125	=125	=125	=125
1I	E:maj	199.726	newline	voice	1E 1g# 1b
=126	=126	=126	=126	=126	=126
1I	E:maj	201.266	.	voice	1E 1g# 1b
=127	=127	=127	=127	=127	=127
1I	E:maj	202.805	.	voice	1E 1g# 1b
=128	=128	=128	=128	=128	=128
1I	E:maj	204.344	.	voice	1E 1g# 1b
=129	=129	=129	=129	=129	=129
1I	E:maj	205.883	newline	voice	1E 1g# 1b
=130	=130	=130	=130	=130	=130
1I	E:maj	207.447	.	voice	1E 1g# 1b
=131	=131	=131	=131	=131	=131
1IV	A:maj	209.011	.	voice	1A 1cc# 1ee
=132	=132	=132	=132	=132	=132
1IVm7	A:11	210.575	.	voice	1A 1cc# 1ee 1gg#
=133	=133	=133	=133	=133	=133
1IVm7	A:11	212.139	newline	voice	1A 1cc# 1ee 1gg#
=134	=134	=134	=134	=134	=134
1IVm7	A:11	213.68	.	voice	1A 1cc# 1ee 1gg#
=135	=135	=135	=135	=135	=135
1I	E:maj	215.222	newline	voice	1E 1g# 1b
=136	=136	=136	=136	=136	=136
1I	E:maj	216.756	.	voice	1E 1g# 1b
=137	=137	=137	=137	=137	=137
1I	E:maj	218.29	.	voice	1E 1g# 1b
=138	=138	=138	=138	=138	=138
1I	E:maj	219.824	.	voice	1E 1g# 1b
=139	=139	=139	=139	=139	=139
*>F_chorus	*>F_chorus	*>F_chorus	*>F_chorus	*>F_chorus	*>F_chorus
1-VII	D:maj	221.358	newline	voice	1D 1f# 1a
=140	=140	=140	=140	=140	=140
1-VII	D:maj	222.958	.	voice	1D 1f# 1a
=141	=141	=141	=141	=141	=141
1IV	A:maj	224.558	.	voice	1A 1cc# 1ee
=142	=142	=142	=142	=142	=142
1IV	A:maj	226.159	.	voice	1A 1cc# 1ee
=143	=143	=143	=143	=143	=143
1-VII	D:maj	227.759	newline	voice	1D 1f# 1a
=144	=144	=144	=144	=144	=144
1-VII	D:maj	229.372	.	voice	1D 1f# 1a
=145	=145	=145	=145	=145	=145
1IV	A:maj	230.986	.	voice	1A 1cc# 1ee
=146	=146	=146	=146	=146	=146
1IV	A:maj	232.6	.	voice	1A 1cc# 1ee
=147	=147	=147	=147	=147	=147
*>D_interlude	*>D_interlude	*>D_interlude	*>D_interlude	*>D_interlude	*>D_interlude
1I	E:maj	234.214	newline	guitar	1E 1g# 1b
=148	=148	=148	=148	=148	=148
1I	E:maj	235.786	.	guitar	1E 1g# 1b
=149	=149	=149	=149	=149	=149
1I	E:maj	237.359	.	guitar	1E 1g# 1b
=150	=150	=150	=150	=150	=150
1I	E:maj	238.932	.	guitar	1E 1g# 1b
=151	=151	=151	=151	=151	=151
*>E_verse	*>E_verse	*>E_verse	*>E_verse	*>E_verse	*>E_verse
1I	E:maj	240.505	newline	voice	1E 1g# 1b
=152	=152	=152	=152	=152	=152
1I	E:maj	242.075	.	voice	1E 1g# 1b
=153	=153	=153	=153	=153	=153
1I	E:maj	243.645	.	voice	1E 1g# 1b
=154	=154	=154	=154	=154	=154
1I	E:maj	245.215	.	voice	1E 1g# 1b
=155	=155	=155	=155	=155	=155
1I	E:maj	246.784	newline	voice	1E 1g# 1b
=156	=156	=156	=156	=156	=156
1I	E:maj	248.367	.	voice	1E 1g# 1b
=157	=157	=157	=157	=157	=157
1IV	A:maj	249.95	.	voice	1A 1cc# 1ee
=158	=158	=158	=158	=158	=158
1IVm7	A:11	251.532	.	voice	1A 1cc# 1ee 1gg#
=159	=159	=159	=159	=159	=159
1IVm7	A:11	253.115	newline	voice	1A 1cc# 1ee 1gg#
=160	=160	=160	=160	=160	=160
1IVm7	A:11	254.72	.	voice	1A 1cc# 1ee 1gg#
=161	=161	=161	=161	=161	=161
1I	E:maj	256.325	newline	voice	1E 1g# 1b
=162	=162	=162	=162	=162	=162
1I	E:maj	257.863	.	voice	1E 1g# 1b
=163	=163	=163	=163	=163	=163
1I	E:maj	259.401	.	voice	1E 1g# 1b
=164	=164	=164	=164	=164	=164
1I	E:maj	260.939	.	voice	1E 1g# 1b
=165	=165	=165	=165	=165	=165
1I	E:maj	262.477	newline	voice	1E 1g# 1b
=166	=166	=166	=166	=166	=166
1I	E:maj	264.046	.	voice	1E 1g# 1b
=167	=167	=167	=167	=167	=167
1I	E:maj	265.614	.	voice	1E 1g# 1b
=168	=168	=168	=168	=168	=168
1I	E:maj	267.182	.	voice	1E 1g# 1b
=169	=169	=169	=169	=169	=169
1I	E:maj	268.75	newline	voice	1E 1g# 1b
=170	=170	=170	=170	=170	=170
1I	E:maj	270.326	.	voice	1E 1g# 1b
=171	=171	=171	=171	=171	=171
1IV	A:maj	271.901	.	voice	1A 1cc# 1ee
=172	=172	=172	=172	=172	=172
1IVm7	A:11	273.476	.	voice	1A 1cc# 1ee 1gg#
=173	=173	=173	=173	=173	=173
1IVm7	A:11	275.051	newline	voice	1A 1cc# 1ee 1gg#
=174	=174	=174	=174	=174	=174
1IVm7	A:11	276.611	.	voice	1A 1cc# 1ee 1gg#
=175	=175	=175	=175	=175	=175
1I	E:maj	278.172	newline	voice	1E 1g# 1b
=176	=176	=176	=176	=176	=176
1I	E:maj	279.727	.	voice	1E 1g# 1b
=177	=177	=177	=177	=177	=177
1I	E:maj	281.281	.	voice	1E 1g# 1b
=178	=178	=178	=178	=178	=178
1I	E:maj	282.836	.	voice	1E 1g# 1b
=179	=179	=179	=179	=179	=179
*>D2_solo	*>D2_solo	*>D2_solo	*>D2_solo	*>D2_solo	*>D2_solo
1I	E:maj	284.391	newline	guitar	1E 1g# 1b
=180	=180	=180	=180	=180	=180
1I	E:maj	285.916	.	guitar	1E 1g# 1b
=181	=181	=181	=181	=181	=181
1I	E:maj	287.441	.	guitar	1E 1g# 1b
=182	=182	=182	=182	=182	=182
1I	E:maj	288.965	.	guitar	1E 1g# 1b
=183	=183	=183	=183	=183	=183
1I	E:maj	290.49	newline	guitar	1E 1g# 1b
=184	=184	=184	=184	=184	=184
1I	E:maj	292.009	.	guitar	1E 1g# 1b
=185	=185	=185	=185	=185	=185
1I	E:maj	293.527	.	guitar	1E 1g# 1b
=186	=186	=186	=186	=186	=186
1I	E:maj	295.046	.	guitar	1E 1g# 1b
=187	=187	=187	=187	=187	=187
1I	E:maj	296.564	newline	guitar	1E 1g# 1b
=188	=188	=188	=188	=188	=188
1I	E:maj	298.126	.	guitar	1E 1g# 1b
=189	=189	=189	=189	=189	=189
1I	E:maj	299.688	.	guitar	1E 1g# 1b
=190	=190	=190	=190	=190	=190
1I	E:maj	301.25	.	guitar	1E 1g# 1b
=191	=191	=191	=191	=191	=191
1I	E:maj	302.811	newline	guitar	1E 1g# 1b
=192	=192	=192	=192	=192	=192
1I	E:maj	304.354	.	guitar	1E 1g# 1b
=193	=193	=193	=193	=193	=193
1I	E:maj	305.896	.	guitar	1E 1g# 1b
=194	=194	=194	=194	=194	=194
1I	E:maj	307.438	.	guitar	1E 1g# 1b
=195	=195	=195	=195	=195	=195
1I	E:maj	308.98	newline	guitar	1E 1g# 1b
=196	=196	=196	=196	=196	=196
1I	E:maj	310.538	.	guitar	1E 1g# 1b
=197	=197	=197	=197	=197	=197
*>G_verse	*>G_verse	*>G_verse	*>G_verse	*>G_verse	*>G_verse
1vf	B:min/4	312.097	newline	voice	1B 1dd 1ff#
=198	=198	=198	=198	=198	=198
4vf	B:min/4	313.646	.	voice	4B 4dd 4ff#
2.I	E:maj	314.034	.	voice	2E 2g# 2b
=199	=199	=199	=199	=199	=199
1vf	B:min/4	315.196	.	voice	1B 1dd 1ff#
=200	=200	=200	=200	=200	=200
2I	E:sus4(b7)	316.745	.	voice	2E 2g# 2b
2Im7	E:7	317.519	.	voice	2E 2g# 2b 2dd#
=201	=201	=201	=201	=201	=201
1I	E:5(b7)	318.294	newline	voice	1E 1g# 1b
=202	=202	=202	=202	=202	=202
1I	E:5(b7)	319.863	.	voice	1E 1g# 1b
=203	=203	=203	=203	=203	=203
1I	E:5(b7)	321.433	.	voice	1E 1g# 1b
=204	=204	=204	=204	=204	=204
2-VII7e	D:maj7/2	323.003	.	voice	2D 2f# 2a 2cc#
2vi7b	C#:min7/b3	323.787	.	voice	2c# 2E 2g# 2b
=205	=205	=205	=205	=205	=205
1vi7b	C#:min7/b3	324.572	.	voice	1c# 1E 1g# 1b
=206	=206	=206	=206	=206	=206
*>H_solo	*>H_solo	*>H_solo	*>H_solo	*>H_solo	*>H_solo
1I	E:maj	326.142	newline	guitar	1E 1g# 1b
=207	=207	=207	=207	=207	=207
1I	E:maj	327.672	.	guitar	1E 1g# 1b
=208	=208	=208	=208	=208	=208
1I	E:maj	329.202	.	guitar	1E 1g# 1b
=209	=209	=209	=209	=209	=209
1I	E:maj	330.732	.	guitar	1E 1g# 1b
=210	=210	=210	=210	=210	=210
1I	E:maj	332.262	newline	guitar	1E 1g# 1b
=211	=211	=211	=211	=211	=211
1I	E:maj	333.836	.	guitar	1E 1g# 1b
=212	=212	=212	=212	=212	=212
1I	E:maj	335.41	.	guitar	1E 1g# 1b
=213	=213	=213	=213	=213	=213
1I	E:maj	336.984	.	guitar	1E 1g# 1b
=214	=214	=214	=214	=214	=214
1I	E:maj	338.558	.	guitar	1E 1g# 1b
=215	=215	=215	=215	=215	=215
*>G_verse	*>G_verse	*>G_verse	*>G_verse	*>G_verse	*>G_verse
1vf	B:min/4	340.133	newline	voice	1B 1dd 1ff#
=216	=216	=216	=216	=216	=216
4vf	B:min/4	341.715	.	voice	4B 4dd 4ff#
2.I	E:maj	342.111	.	voice	2E 2g# 2b
=217	=217	=217	=217	=217	=217
1vf	B:min/4	343.298	.	voice	1B 1dd 1ff#
=218	=218	=218	=218	=218	=218
2I	E:sus4(b7)	344.88	.	voice	2E 2g# 2b
2Im7	E:7	345.671	.	voice	2E 2g# 2b 2dd#
=219	=219	=219	=219	=219	=219
1I	E:5(b7)	346.463	newline	voice	1E 1g# 1b
=220	=220	=220	=220	=220	=220
1I	E:5(b7)	348.064	.	voice	1E 1g# 1b
=221	=221	=221	=221	=221	=221
1I	E:5(b7)	349.665	.	voice	1E 1g# 1b
=222	=222	=222	=222	=222	=222
2-VII7e	D:maj7/2	351.266	.	voice	2D 2f# 2a 2cc#
2vi7b	C#:min7/b3	352.066	.	voice	2c# 2E 2g# 2b
=223	=223	=223	=223	=223	=223
1vi7b	C#:min7/b3	352.867	.	voice	1c# 1E 1g# 1b
=224	=224	=224	=224	=224	=224
*>H_solo	*>H_solo	*>H_solo	*>H_solo	*>H_solo	*>H_solo
1I	E:maj	354.468	newline	guitar	1E 1g# 1b
=225	=225	=225	=225	=225	=225
1I	E:maj	356.014	.	guitar	1E 1g# 1b
=226	=226	=226	=226	=226	=226
1I	E:maj	357.559	.	guitar	1E 1g# 1b
=227	=227	=227	=227	=227	=227
1I	E:maj	359.105	.	guitar	1E 1g# 1b
=228	=228	=228	=228	=228	=228
1I	E:maj	360.651	newline	guitar	1E 1g# 1b
=229	=229	=229	=229	=229	=229
1I	E:maj	362.226	.	guitar	1E 1g# 1b
=230	=230	=230	=230	=230	=230
1I	E:maj	363.801	.	guitar	1E 1g# 1b
=231	=231	=231	=231	=231	=231
1I	E:maj	365.376	.	guitar	1E 1g# 1b
=232	=232	=232	=232	=232	=232
1I	E:maj	366.951	.	guitar	1E 1g# 1b
=233	=233	=233	=233	=233	=233
*>G_verse	*>G_verse	*>G_verse	*>G_verse	*>G_verse	*>G_verse
1vf	B:min/4	368.526	newline	voice	1B 1dd 1ff#
=234	=234	=234	=234	=234	=234
4vf	B:min/4	370.098	.	voice	4B 4dd 4ff#
2.I	E:maj	370.491	.	voice	2E 2g# 2b
=235	=235	=235	=235	=235	=235
1vf	B:min/4	371.669	.	voice	1B 1dd 1ff#
=236	=236	=236	=236	=236	=236
2I	E:sus4(b7)	373.241	.	voice	2E 2g# 2b
2Im7	E:7	374.027	.	voice	2E 2g# 2b 2dd#
=237	=237	=237	=237	=237	=237
1I	E:5(b7)	374.813	newline	voice	1E 1g# 1b
=238	=238	=238	=238	=238	=238
1I	E:5(b7)	376.395	.	voice	1E 1g# 1b
=239	=239	=239	=239	=239	=239
1I	E:5(b7)	377.977	.	voice	1E 1g# 1b
=240	=240	=240	=240	=240	=240
2-VII7e	D:maj7/2	379.558	.	voice	2D 2f# 2a 2cc#
2vi7b	C#:min7/b3	380.349	.	voice	2c# 2E 2g# 2b
=241	=241	=241	=241	=241	=241
1vi7b	C#:min7/b3	381.14	.	voice	1c# 1E 1g# 1b
=242	=242	=242	=242	=242	=242
*>H2_solo	*>H2_solo	*>H2_solo	*>H2_solo	*>H2_solo	*>H2_solo
1I	E:maj	382.722	newline	guitar	1E 1g# 1b
=243	=243	=243	=243	=243	=243
1I	E:maj	384.25	.	guitar	1E 1g# 1b
=244	=244	=244	=244	=244	=244
1I	E:maj	385.778	.	guitar	1E 1g# 1b
=245	=245	=245	=245	=245	=245
1I	E:maj	387.306	.	guitar	1E 1g# 1b
=246	=246	=246	=246	=246	=246
1I	E:maj	388.834	newline	guitar	1E 1g# 1b
=247	=247	=247	=247	=247	=247
1I	E:maj	390.07	.	guitar	1E 1g# 1b
=248	=248	=248	=248	=248	=248
1I	E:maj	391.305	.	guitar	1E 1g# 1b
=249	=249	=249	=249	=249	=249
1I	E:maj	392.541	.	guitar	1E 1g# 1b
=250	=250	=250	=250	=250	=250
1I	E:maj	393.777	.	guitar	1E 1g# 1b
=251	=251	=251	=251	=251	=251
*>I_outro	*>I_outro	*>I_outro	*>I_outro	*>I_outro	*>I_outro
2IV	A:maj	395.012	newline	voice	2A 2cc# 2ee
2v7	B:min7	395.79	.	voice	2B 2dd 2ff# 2aa
=252	=252	=252	=252	=252	=252
4ii	F#:min	396.569	.	voice	4F# 4a 4cc#
2-VII	D:maj	396.958	.	voice	2D 2f# 2a
4I	E:maj	397.736	.	voice	4E 4g# 4b
=253	=253	=253	=253	=253	=253
2IV	A:maj	398.125	.	voice	2A 2cc# 2ee
2v7	B:min7	398.903	.	voice	2B 2dd 2ff# 2aa
=254	=254	=254	=254	=254	=254
4ii	F#:min	399.681	.	voice	4F# 4a 4cc#
4-VII	D:maj	400.07	.	voice	4D 4f# 4a
2I	E:maj	400.459	.	voice	2E 2g# 2b
=255	=255	=255	=255	=255	=255
2IV	A:maj	401.237	newline	voice	2A 2cc# 2ee
2v7	B:min7	402.017	.	voice	2B 2dd 2ff# 2aa
=256	=256	=256	=256	=256	=256
4ii	F#:min	402.796	.	voice	4F# 4a 4cc#
2-VII	D:maj	403.186	.	voice	2D 2f# 2a
4I	E:maj	403.965	.	voice	4E 4g# 4b
=257	=257	=257	=257	=257	=257
2IV	A:maj	404.355	.	voice	2A 2cc# 2ee
2v7	B:min7	405.134	.	voice	2B 2dd 2ff# 2aa
=258	=258	=258	=258	=258	=258
4ii	F#:min	405.914	.	voice	4F# 4a 4cc#
4-VII	D:maj	406.303	.	voice	4D 4f# 4a
2I	E:maj	406.693	.	voice	2E 2g# 2b
=259	=259	=259	=259	=259	=259
2IV	A:maj	407.472	newline	voice	2A 2cc# 2ee
2v7	B:min7	408.258	.	voice	2B 2dd 2ff# 2aa
=260	=260	=260	=260	=260	=260
4ii	F#:min	409.044	.	voice	4F# 4a 4cc#
2-VII	D:maj	409.437	.	voice	2D 2f# 2a
4I	E:maj	410.223	.	voice	4E 4g# 4b
=261	=261	=261	=261	=261	=261
2IV	A:maj	410.616	.	voice	2A 2cc# 2ee
2v7	B:min7	411.402	.	voice	2B 2dd 2ff# 2aa
=262	=262	=262	=262	=262	=262
4ii	F#:min	412.188	.	voice	4F# 4a 4cc#
4-VII	D:maj	412.581	.	voice	4D 4f# 4a
2I	E:maj	412.974	.	voice	2E 2g# 2b
=263	=263	=263	=263	=263	=263
2IV	A:maj	413.759	newline	voice	2A 2cc# 2ee
2v7	B:min7	414.553	.	voice	2B 2dd 2ff# 2aa
=264	=264	=264	=264	=264	=264
4ii	F#:min	415.346	.	voice	4F# 4a 4cc#
2-VII	D:maj	415.743	.	voice	2D 2f# 2a
4I	E:maj	416.536	.	voice	4E 4g# 4b
=265	=265	=265	=265	=265	=265
2IV	A:maj	416.933	.	voice	2A 2cc# 2ee
2v7	B:min7	417.726	.	voice	2B 2dd 2ff# 2aa
=266	=266	=266	=266	=266	=266
4ii	F#:min	418.519	.	voice	4F# 4a 4cc#
4-VII	D:maj	418.916	.	voice	4D 4f# 4a
2I	E:maj	419.313	.	voice	2E 2g# 2b
=267	=267	=267	=267	=267	=267
2IV	A:maj	420.106	newline	voice	2A 2cc# 2ee
2v7	B:min7	420.902	.	voice	2B 2dd 2ff# 2aa
=268	=268	=268	=268	=268	=268
4ii	F#:min	421.699	.	voice	4F# 4a 4cc#
2-VII	D:maj	422.097	.	voice	2D 2f# 2a
4I	E:maj	422.893	.	voice	4E 4g# 4b
=269	=269	=269	=269	=269	=269
2IV	A:maj	423.292	.	voice	2A 2cc# 2ee
2v7	B:min7	424.088	.	voice	2B 2dd 2ff# 2aa
=270	=270	=270	=270	=270	=270
4ii	F#:min	424.884	.	voice	4F# 4a 4cc#
4-VII	D:maj	425.283	.	voice	4D 4f# 4a
2I	E:maj	425.681	.	voice	2E 2g# 2b
=271	=271	=271	=271	=271	=271
2IV	A:maj	426.477	newline	voice	2A 2cc# 2ee
2v7	B:min7	427.266	.	voice	2B 2dd 2ff# 2aa
=272	=272	=272	=272	=272	=272
4ii	F#:min	428.054	.	voice	4F# 4a 4cc#
2-VII	D:maj	428.448	.	voice	2D 2f# 2a
4I	E:maj	429.237	.	voice	4E 4g# 4b
=273	=273	=273	=273	=273	=273
2IV	A:maj	429.631	.	voice	2A 2cc# 2ee
2v7	B:min7	430.419	.	voice	2B 2dd 2ff# 2aa
=274	=274	=274	=274	=274	=274
4ii	F#:min	431.208	.	voice	4F# 4a 4cc#
4-VII	D:maj	431.602	.	voice	4D 4f# 4a
2I	E:maj	431.996	.	voice	2E 2g# 2b
=275	=275	=275	=275	=275	=275
2IV	A:maj	432.784	newline	voice	2A 2cc# 2ee
2v7	B:min7	433.569	.	voice	2B 2dd 2ff# 2aa
=276	=276	=276	=276	=276	=276
4ii	F#:min	434.354	.	voice	4F# 4a 4cc#
2-VII	D:maj	434.747	.	voice	2D 2f# 2a
4I	E:maj	435.531	.	voice	4E 4g# 4b
=277	=277	=277	=277	=277	=277
2IV	A:maj	435.924	.	voice	2A 2cc# 2ee
2v7	B:min7	436.709	.	voice	2B 2dd 2ff# 2aa
=278	=278	=278	=278	=278	=278
4ii	F#:min	437.494	.	voice	4F# 4a 4cc#
4-VII	D:maj	437.886	.	voice	4D 4f# 4a
2I	E:maj	438.279	.	voice	2E 2g# 2b
=279	=279	=279	=279	=279	=279
2IV	A:maj	439.063	newline	voice	2A 2cc# 2ee
2v7	B:min7	439.841	.	voice	2B 2dd 2ff# 2aa
=280	=280	=280	=280	=280	=280
4ii	F#:min	440.618	.	voice	4F# 4a 4cc#
2-VII	D:maj	441.007	.	voice	2D 2f# 2a
4I	E:maj	441.784	.	voice	4E 4g# 4b
=281	=281	=281	=281	=281	=281
2IV	A:maj	442.173	.	voice	2A 2cc# 2ee
2v7	B:min7	442.95	.	voice	2B 2dd 2ff# 2aa
=282	=282	=282	=282	=282	=282
4ii	F#:min	443.727	.	voice	4F# 4a 4cc#
4-VII	D:maj	444.116	.	voice	4D 4f# 4a
2I	E:maj	444.505	.	voice	2E 2g# 2b
1r;	N	446.254	.	r	1r;
1r;	N	449.455	.	r	1r;
*-	*-	*-	*-	*-	*-
!!!OTL: Suite: Judy Blue Eyes
!!!COC: Crosby, Stills & Nash
!!!BillboardChartDate: 1969/10/18
!!!BillboardPeak: 21
!!!BillboardWeeksOnChart: 12
!!!SampleTargetRank: 64
!!!SampleActualRank: 64
!!!SampleID#: 0518
!!!RDF**harmony: **recip + pitch class of root + harmonic quality
!!!RDF**harte: Chris Harte's syntax, used by MIREX
!!!RDF**phrase: newline = linebreak in original McGill transcription
!!!RDF**timestamp: McGill audio timestamp in seconds
!!!RDF**leadinstrument: original McGill primary instrumentation annotation
!!!RDT: 2017/01/12/
!!!ENC: Nathaniel Condit-Schultz
!!!EST: Awating manual error checking and editing.
